packages/icons/src/azf-rollback-primary.svg

<svg width="32" height="32" viewBox="0 0 32 32" fill="none" xmlns="http://www.w3.org/2000/svg">
<path fill-rule="evenodd" clip-rule="evenodd" d="M14.1056 4.61807C14.2993 4.81491 14.2967 5.13148 14.0999 5.32516L11.899 7.49067H26.1406C26.9691 7.49067 27.6406 8.16224 27.6406 8.99067V18.4893C27.6406 18.7655 27.4168 18.9893 27.1406 18.9893C26.8645 18.9893 26.6406 18.7655 26.6406 18.4893V8.99067C26.6406 8.71453 26.4168 8.49067 26.1406 8.49067H11.899L14.0999 10.6562C14.2967 10.8499 14.2993 11.1664 14.1056 11.3633C13.9119 11.5601 13.5954 11.5627 13.3985 11.369L10.3272 8.34708C10.2317 8.25309 10.1779 8.12468 10.1779 7.99067C10.1779 7.85666 10.2317 7.72826 10.3272 7.63427L13.3985 4.61234C13.5954 4.41867 13.9119 4.42124 14.1056 4.61807ZM5.02881 13.4309C5.30495 13.4309 5.52881 13.6547 5.52881 13.9309V25.8905C5.52881 26.1667 5.75267 26.3905 6.02881 26.3905H18.3393C18.6154 26.3905 18.8393 26.6144 18.8393 26.8905C18.8393 27.1667 18.6154 27.3905 18.3393 27.3905H6.02881C5.20038 27.3905 4.52881 26.719 4.52881 25.8905V13.9309C4.52881 13.6547 4.75267 13.4309 5.02881 13.4309Z" fill="#0278D5"/>
<path d="M31.6807 26.0671C31.7813 25.9666 31.7644 25.775 31.6807 25.6706L31.1501 25.14L28.7783 22.8393C28.6777 22.7388 28.5213 22.7388 28.4001 22.8393C28.2996 22.9399 28.2606 23.1315 28.4001 23.2358L30.8923 25.6761C30.9929 25.7767 30.9929 25.9683 30.8923 26.0726L28.3468 28.5968C28.2463 28.6973 28.2463 28.889 28.3468 28.9933C28.4474 29.0939 28.639 29.077 28.725 28.9933L31.0968 26.6421L31.6807 26.0671ZM20.8192 26.0671C20.7187 25.9666 20.7355 25.775 20.8192 25.6706L21.3498 25.14L23.7217 22.8393C23.8222 22.7388 23.9786 22.7388 24.0998 22.8393C24.2004 22.9399 24.2394 23.1315 24.0998 23.2358L21.6592 25.6765C21.5586 25.777 21.5586 25.9687 21.6592 26.073L24.1514 28.5971C24.2519 28.6977 24.2519 28.8893 24.1514 28.9937C24.0508 29.0942 23.8592 29.0774 23.7733 28.9937L21.3498 26.6773L20.8192 26.0671Z" fill="#3999C6"/>
<path d="M26.694 24.3526L28.9278 20.9297H25.5771L23.7733 26.0172L25.9733 26.0339L24.2534 31.071L29 24.3531L26.694 24.3526Z" fill="#FCD116"/>
<path opacity="0.3" d="M29.0003 24.3526H26.6937L28.9278 20.9297H27.1741L25.3201 25.1568L27.5201 25.1735L24.2533 31.0688L29.0003 24.3526Z" fill="#FF8C00"/>
</svg>

<svg viewBox="0 0 32 32" fill="none" xmlns="http://www.w3.org/2000/svg"><path fill-rule="evenodd" clip-rule="evenodd" d="M14.106 4.618a.5.5 0 0 1-.006.707l-2.201 2.166h14.242a1.5 1.5 0 0 1 1.5 1.5v9.498a.5.5 0 1 1-1 0V8.991a.5.5 0 0 0-.5-.5H11.899l2.2 2.165a.5.5 0 0 1-.7.713l-3.072-3.022a.5.5 0 0 1 0-.713L13.4 4.612a.5.5 0 0 1 .707.006Zm-9.077 8.813a.5.5 0 0 1 .5.5v11.96a.5.5 0 0 0 .5.5h12.31a.5.5 0 0 1 0 1H6.03a1.5 1.5 0 0 1-1.5-1.5V13.93a.5.5 0 0 1 .5-.5Z" fill="#0278D5"/><path d="M31.68 26.067c.101-.1.084-.292 0-.396l-.53-.531-2.372-2.3c-.1-.101-.257-.101-.378 0-.1.1-.14.291 0 .396l2.492 2.44c.1.1.1.292 0 .397l-2.545 2.524c-.1.1-.1.292 0 .396.1.1.292.084.378 0l2.372-2.35.584-.576Zm-10.86 0c-.101-.1-.085-.292 0-.396l.53-.531 2.372-2.3c.1-.101.257-.101.378 0 .1.1.14.291 0 .396l-2.44 2.44c-.101.101-.101.293 0 .397l2.491 2.524c.1.1.1.292 0 .397-.1.1-.292.083-.378 0l-2.423-2.317-.53-.61Z" fill="#3999C6"/><path d="m26.694 24.353 2.234-3.423h-3.35l-1.805 5.087 2.2.017-1.72 5.037L29 24.353h-2.306Z" fill="#FCD116"/><path opacity=".3" d="M29 24.353h-2.306l2.234-3.423h-1.754l-1.854 4.227 2.2.017-3.267 5.895L29 24.353Z" fill="#FF8C00"/></svg>
